X:0999
T:Cameron House, a Strathsy.
T:For the Flute.
M:C
L:1/8
Q:1/4=112
I: :: ||
Z:Jack Campin * www.campin.me.uk * 2009
K:A Minor
A/G/|(EAA>)B     Bc/B/ A2|G>GG>A B>d c/B/A/G/|E>AA>B      c>Bc>a |ge  (e/d/c/B/) cAA:|
e   | ab{ab}c'a  e>e   a2|g>ed>g B>GG>e      |a>b{ab}c'>a e>ea2  |g>e (e/d/c/B/) c>AA
e   | a>b{ab}c'a e>e   a2|g>ed>g B>GG>B      |c>eA>e      a>ec'>a|g>e (e/d/c/B/) cAA|]
<end>
<start>
